!!!!SEGMENT: Ric2008-Christus_resurgens.krn
!!!id: Ric2008
!!!AGN: Motet
!!!SCT: Elzinga (1999)
!!!voices: 4
!!!COM: Jean Richafort
!!!OTL: Christus resurgens
**kern	**kern	**kern	**kern
*part4	*part3	*part2	*part1
*staff4	*staff3	*staff2	*staff1
*I"Bassus	*I"Tenor	*I"Altus	*I"Superius
*I'B	*I'T	*I'A	*I'S
*clefF4	*clefGv2	*clefG2	*clefG2
*k[b-]	*k[b-]	*k[b-]	*k[b-]
*F:	*F:	*F:	*F:
*M2/1	*M2/1	*M2/1	*M2/1
*met(C|)	*met(C|)	*met(C|)	*met(C|)
!!section: Prima pars: Christus resurgens
!!!OMD: Prima pars: Christus resurgens
=1	=1	=1	=1
0r	0r	1r	1f
.	.	1c	1cc
=2	=2	=2	=2
0r	0r	1.f	1cc
.	.	.	1dd
.	.	2g	.
=3	=3	=3	=3
0r	0r	1a	2.cc
.	.	.	4b-y
.	.	1f	4a
.	.	.	4g
.	.	.	[2a
=4	=4	=4	=4
1r	1F	1cc	2a]
.	.	.	4g
.	.	.	4f
1C	1c	4cc	2g
.	.	4b-y	.
.	.	4a	[2cc
.	.	4g	.
=5	=5	=5	=5
1.F	1c	4a	4cc]
.	.	4g	4b-y
.	.	1cc	1a
.	1d	.	.
2G	.	2bni	4g
.	.	.	4f
=6	=6	=6	=6
1A	2.c	0cc	2e
.	.	.	4f
.	4B-y	.	4e
1F	4A	.	1f
.	4G	.	.
.	[2A	.	.
=7	=7	=7	=7
2.c	2A]	0r	0r
.	4G	.	.
4B-y	4F	.	.
2A	2.f	.	.
2G	.	.	.
.	4e	.	.
=8	=8	=8	=8
4F	2d	1r	0r
4E	.	.	.
4D	1c	.	.
4C	.	.	.
1D	.	2r	.
.	2Bni	[2f	.
=9	=9	=9	=9
1C	1c	2f]	2r
.	.	2e	1cc
1r	1r	2f	.
.	.	2g	2b-y
=10	=10	=10	=10
0r	0r	2a	2cc
.	.	4d	2dd
.	.	4e	.
.	.	4f	1cc
.	.	4g	.
.	.	4a	.
.	.	4b-y	.
=11	=11	=11	=11
0r	2r	2.cc	2.c
.	1c	.	.
.	.	4b-y	4d
.	.	4g	4e
.	.	4a	4f
.	2B-y	4b-y	[2g
.	.	4cc	.
=12	=12	=12	=12
1r	2c	2a	4g]
.	.	.	4f
.	2d	4g	4f
.	.	4f	8eL
.	.	.	8dJ
2r	[1c	2g	2e
[2F	.	[2a	2f
=13	=13	=13	=13
2F]	1c]	2a]	2c
2E	.	2g	1cc
2F	1r	2a	.
2G	.	4g	2b-y
.	.	4f	.
=14	=14	=14	=14
2A	2r	2e	2cc
4G	1c	1f	2a
4F	.	.	.
1G	.	.	1b-y
.	2B-y	2e	.
=15	=15	=15	=15
1.F	2c	2.f	2.a
.	2d	.	.
.	.	4e	8gL
.	.	.	8fJ
.	2.c	2f	2a
2E	.	2g	[2g
.	4B-y	.	.
=16	=16	=16	=16
2F	2A	1c	2g]
4E	4G	.	1f
4D	4F	.	.
1C	1G	2r	.
.	.	2cc	2e
=17	=17	=17	=17
0F	1F	1cc	1f
.	1r	1a	2r
.	.	.	2f
=18	=18	=18	=18
1r	2r	1cc	1f
.	2f	.	.
2r	1f	2.dd	1d
2B-y	.	.	.
.	.	4cc	.
=19	=19	=19	=19
1B-y	0d	4b-y	1r
.	.	4a	.
.	.	2.dd	.
1G	.	.	2r
.	.	4cc	.
.	.	4b-y	2g
.	.	4a	.
=20	=20	=20	=20
2.c	1e	1g	2g
.	.	.	2e
4B-y	.	.	.
4A	1c	1r	2.g
4G	.	.	.
4F	.	.	.
4E	.	.	4f
=21	=21	=21	=21
4D	0r	1r	2f
4C	.	.	.
1c	.	.	2e
.	.	2r	1d
2Bni	.	2g	.
=22	=22	=22	=22
0c	2r	2g	2c
.	2c	2e	2.cc
.	2A	2.a	.
.	.	.	4b-y
.	2F	.	4cc
.	.	4g	4a
=23	=23	=23	=23
0r	2B-y	2f	2dd
.	2c	2e	1cc
.	1G	1d	.
.	.	.	2bni
=24	=24	=24	=24
2r	1c	1c	0cc
2C	.	.	.
2.F	2r	1r	.
.	2c	.	.
4E	.	.	.
=25	=25	=25	=25
2F	2.d	1r	0r
2G	.	.	.
.	4e	.	.
2.A	2f	2r	.
.	2e	2c	.
4G	.	.	.
=26	=26	=26	=26
2A	2c	2.f	0r
1B-y	1d	.	.
.	.	4e	.
.	.	2f	.
4A	4c	2g	.
4G	4B-y	.	.
=27	=27	=27	=27
0F	0A	2a	2r
.	.	4f	2c
.	.	4g	.
.	.	4a	2.f
.	.	4b-y	.
.	.	[2cc	.
.	.	.	4e
=28	=28	=28	=28
2r	0r	4cc]	2f
.	.	4f	.
2C	.	2.cc	2g
2.F	.	.	2a
.	.	4b-y	.
.	.	[2a	[2f
4E	.	.	.
=29	=29	=29	=29
2F	1r	2a]	2f]
2G	.	4g	4e
.	.	4f	4d
1A	2r	4e	2c
.	.	4c	.
.	2F	2f	2cc
=30	=30	=30	=30
1r	2.B-y	2.f	2.dd
.	4A	4f	4cc
2r	2B-y	2g	2b-y
2F	2c	2a	2a
=31	=31	=31	=31
2.B-y	2.d	0f	4b-y
.	.	.	4a
.	.	.	1dd
4A	4c	.	.
2B-y	2B-y	.	.
2c	2A	.	2cc
=32	=32	=32	=32
1d	4G	0r	4b-y
.	4F	.	4a
.	1f	.	4g
.	.	.	4f
1c	.	.	1g
.	2e	.	.
=33	=33	=33	=33
2r	1d	1.f	1f
1B-y	.	.	.
.	1c	.	2r
2A	.	2f	[2cc
=34	=34	=34	=34
1G	1r	2e	2cc]
.	.	2d	2b-y
2F	2r	2f	2a
[2G	2B-y	2e	2g
=35	=35	=35	=35
2G]	2G	1d	2b-y
2F	2A	.	2a
1G	[1B-y	2.d	1g
.	.	4e	.
=36	=36	=36	=36
1D	2B-]	4f	2r
.	.	4g	.
.	2A	4a	2f
.	.	4f	.
1r	1G	1b-y	2d
.	.	.	2e
=37	=37	=37	=37
0r	1F	2a	2.f
.	.	2.cc	.
.	.	.	4g
.	2.f	.	2a
.	.	4b-y	.
.	.	4a	2d
.	4e	4g	.
=38	=38	=38	=38
0r	4d	4f	1a
.	4c	4e	.
.	1d	1f	.
.	.	.	1b-y
.	4c	4e	.
.	4B-y	4d	.
=39	=39	=39	=39
2r	2d	2.f	1a
1F	2c	.	.
.	.	8eL	.
.	.	8dJ	.
.	2A	1c	1r
2E	[2c	.	.
=40	=40	=40	=40
2.F	4c]	0r	2r
.	4B-y	.	.
.	4A	.	1cc
4G	4G	.	.
2A	2F	.	.
2B-y	[2f	.	4b-y
.	.	.	4a
=41	=41	=41	=41
1c	2f]	2r	2g
.	2e	1cc	1a
2A	1f	.	.
2B-y	.	4b-y	4g
.	.	4a	4f
=42	=42	=42	=42
2c	2r	2g	2e
2F	2.c	2a	1f
1G	.	1b-y	.
.	4B-y	.	.
.	4B-y	.	2e
.	4A	.	.
=43	=43	=43	=43
[0F	2d	1a	2.f
.	2c	.	.
.	.	.	8eL
.	.	.	8dJ
.	1A	2r	1c
.	.	2cc	.
=44	=44	=44	=44
0F]	2r	2dd	1r
.	2c	2cc	.
.	2d	1a	2r
.	2c	.	2cc
=45	=45	=45	=45
2r	2f	2.a	2dd
2c	2.F	.	2cc
.	.	4g	.
2d	.	4f	2a
.	4G	4e	.
2c	4A	2f	[2cc
.	4B-y	.	.
=46	=46	=46	=46
1A	4c	2e	4cc]
.	4F	.	4b-y
.	1f	2c	1a
1B-y	.	2.d	.
.	4e	.	2g
.	4d	8cL	.
.	.	8dJ	.
=47	=47	=47	=47
2A	2c	2e	[0a
2.D	2d	1f	.
.	1A	.	.
4C	.	.	.
4D	.	4e	.
4E	.	4d	.
=48	=48	=48	=48
4F	2r	2c	0a]
4E	.	.	.
4F	2c	2.cc	.
4G	.	.	.
2A	2c	.	.
.	.	4b-y	.
2F	2c	[2a	.
=49	=49	=49	=49
1B-y	1d	2a]	0r
.	.	2g	.
1A	2.c	2a	.
.	.	2cc	.
.	4B-y	.	.
=50	=50	=50	=50
0r	4A	2cc	2r
.	4G	.	.
.	2F	2cc	2a
.	1B-y	1dd	2a
.	.	.	2g
=51	=51	=51	=51
2r	1A	2.cc	2a
2c	.	.	4g
.	.	8b-yL	4f
.	.	8aJ	.
2c	1r	2g	1e
2c	.	[2a	.
=52	=52	=52	=52
1d	0r	2a]	2r
.	.	4g	2f
.	.	4f	.
2.c	.	1g	2f
.	.	.	2e
4B-y	.	.	.
=53	=53	=53	=53
4A	2r	2.c	2f
4G	.	.	.
2.A	2c	.	4e
.	.	4d	4d
.	2c	2e	2c
4G	.	.	.
4F	2c	[2f	[2cc
4E	.	.	.
=54	=54	=54	=54
2F	1d	2f]	4cc]
.	.	.	4a
2G	.	4e	2b-y
.	.	4d	.
1C	[1c	1e	[1cc
=55	=55	=55	=55
0F	1c]	1f	1cc]
.	[1f	[1a	[1cc
=56	=56	=56	=56
1F	2f]	2a]	2cc]
.	2f	2a	2cc
1G	1d	1g	1b-y
=57	=57	=57	=57
1.A	2c	1e	2.a
.	2c	.	.
.	.	.	8gL
.	.	.	8fJ
.	4c	2r	1cc
.	4B-y	.	.
8AL	4A	2c	.
8G	.	.	.
8A	4G	.	.
8B-yJ	.	.	.
=58	=58	=58	=58
1c	1A	4c	2r
.	.	4d	.
.	.	4e	2c
.	.	4d	.
1C	1G	4e	4c
.	.	4f	4d
.	.	[2g	4e
.	.	.	4d
=59	=59	=59	=59
4C	0r	4g]	4e
4D	.	4f	4f
4E	.	2e	4g
4F	.	.	4a
4G	.	1d	2b-y
4A	.	.	.
4B-y	.	.	[2g
4c	.	.	.
=60	=60	=60	=60
2A	2r	1c	4g]
.	.	.	4f
4G	1c	.	1f
4F	.	.	.
1G	.	1r	.
.	2B-y	.	2e
=61	=61	=61	=61
1F	2.A	2r	2f
.	.	2c	2f
.	8GL	.	.
.	8FJ	.	.
2r	2A	4c	2.e
.	.	4d	.
2C	2G	4e	.
.	.	4f	4d
=62	=62	=62	=62
4C	1c	4g	1e
4D	.	4f	.
4E	.	4g	.
4F	.	4a	.
4G	2B-y	4b-y	2r
4E	.	4g	.
2F	2A	[2a	2f
=63	=63	=63	=63
1D	1F	4a]	4f
.	.	4g	4g
.	.	1f	4a
.	.	.	4b-y
1C	1G	.	2cc
.	.	2e	2cc
=	=	=	=
00F	00F	00f	00a
=||	=||	=||	=||
*M2/1	*M2/1	*M2/1	*M2/1
*met(C|)	*met(C|)	*met(C|)	*met(C|)
!!section: Secunda pars: Mortuus est
!!!OMD: Secunda pars: Mortuus est
1.c	0r	0r	1r
.	.	.	[1cc
2B-y	.	.	.
=64	=64	=64	=64
2A	0r	1r	2cc]
2G	.	.	2b-y
1c	.	[1cc	2a
.	.	.	2g
=65	=65	=65	=65
1F	1.f	2cc]	2.a
.	.	2b-y	.
.	.	.	4b-y
1r	.	2a	1cc
.	2e	2g	.
=66	=66	=66	=66
0r	2.d	2b-y	1f
.	.	1a	.
.	4c	.	.
.	1d	.	1r
.	.	4g	.
.	.	4f	.
=67	=67	=67	=67
1r	[0c	0e	0r
[1c	.	.	.
=68	=68	=68	=68
2c]	0c]	1r	1.cc
2B-y	.	.	.
2A	.	[1cc	.
2G	.	.	2b-y
=69	=69	=69	=69
1.F	1r	2cc]	2a
.	.	2b-y	2g
.	[1c	2a	1f
4E	.	2f	.
4D	.	.	.
=70	=70	=70	=70
0C	2c]	1g	0e
.	2B-y	.	.
.	2A	[1c	.
.	2G	.	.
=71	=71	=71	=71
2r	1A	1c]	1r
1c	.	.	.
.	1G	1r	1g
2B-y	.	.	.
=72	=72	=72	=72
2A	0r	1r	2f
1c	.	.	2e
.	.	1g	1d
2B-y	.	.	.
=73	=73	=73	=73
1A	2r	2f	1c
.	1c	2e	.
2.G	.	1g	2.d
.	2B-y	.	.
4F	.	.	4e
=74	=74	=74	=74
2D	2A	2f	2f
2E	1c	2e	2g
2F	.	1d	2a
2G	2B-y	.	[2g
=75	=75	=75	=75
0C	2A	1c	4g]
.	.	.	4f
.	4G	.	1f
.	4F	.	.
.	1G	2r	.
.	.	2cc	2e
=76	=76	=76	=76
2r	1F	2.cc	1f
2c	.	.	.
.	.	4b-y	.
2c	1r	2a	1r
2c	.	2g	.
=77	=77	=77	=77
2.A	2r	2.cc	2r
.	2f	.	2cc
8GL	.	4b-y	.
8FJ	.	.	.
1c	2f	2a	2cc
.	2e	[2g	2cc
=78	=78	=78	=78
0r	1f	4g]	2.a
.	.	4f	.
.	.	1f	.
.	.	.	8gL
.	.	.	8fJ
.	1c	.	1g
.	.	2e	.
=79	=79	=79	=79
2r	2r	1f	1a
2F	2c	.	.
[1F	2.f	2r	2r
.	.	2c	2a
.	4e	.	.
=80	=80	=80	=80
2F]	2d	2.f	1.a
2E	2c	.	.
.	.	4f	.
2D	2d	2f	.
2D	2d	2f	2a
=81	=81	=81	=81
2.F	2c	2f	2a
.	2A	2f	2a
4G	.	.	.
2A	2r	2e	2a
2A	[2f	2c	2a
=82	=82	=82	=82
1B-y	4f]	1d	2f
.	4e	.	.
.	1d	.	2g
1A	.	1e	1a
.	2c#i	.	.
=83	=83	=83	=83
2D	2d	2r	[0a
1d	1f	4d	.
.	.	4e	.
.	.	4f	.
.	.	4g	.
2c#i	2e	[2a	.
=84	=84	=84	=84
2d	2.d	4a]	0a_
.	.	4g	.
2.D	.	2.f	.
.	8cL	.	.
.	8B-yJ	.	.
.	1A	.	.
4C	.	4e	.
4D	.	2d	.
4E	.	.	.
=85	=85	=85	=85
4F	2r	2c	0a]
4E	.	.	.
4F	2c	2.cc	.
4G	.	.	.
2A	2c	.	.
.	.	4b-y	.
2F	2c	[2a	.
=86	=86	=86	=86
1B-y	1d	2a]	0r
.	.	2g	.
1A	2.c	2a	.
.	.	2cc	.
.	4B-y	.	.
=87	=87	=87	=87
0r	4A	2cc	2r
.	4G	.	.
.	2F	2cc	2a
.	1B-y	1dd	2a
.	.	.	2g
=88	=88	=88	=88
2r	1A	2.cc	2a
2c	.	.	4g
.	.	8b-yL	4f
.	.	8aJ	.
2c	1r	2g	1e
2c	.	[2a	.
=89	=89	=89	=89
1d	0r	2a]	2r
.	.	4g	2f
.	.	4f	.
2.c	.	1g	2f
.	.	.	2e
4B-y	.	.	.
=90	=90	=90	=90
4A	2r	2.c	2f
4G	.	.	.
2.A	2c	.	4e
.	.	4d	4d
.	2c	2e	2c
4G	.	.	.
4F	2c	[2f	[2cc
4E	.	.	.
=91	=91	=91	=91
2F	1d	2f]	2cc]
2G	.	4e	2b-y
.	.	4d	.
1C	[1c	1e	[1cc
=92	=92	=92	=92
0F	1c]	1f	1cc]
.	[1f	[1a	[1cc
=93	=93	=93	=93
1F	2f]	2a]	2cc]
.	2f	2a	2cc
1G	1d	1g	1b-y
=94	=94	=94	=94
1.A	2c	1e	2.a
.	2c	.	.
.	.	.	8b-yL
.	.	.	8aJ
.	4c	2r	1cc
.	4B-y	.	.
8AL	4A	2c	.
8G	.	.	.
8A	4G	.	.
8B-yJ	.	.	.
=95	=95	=95	=95
1c	1A	4c	2r
.	.	4d	.
.	.	4e	2c
.	.	4d	.
1C	1G	4e	4c
.	.	4f	4d
.	.	[2g	4e
.	.	.	4d
=96	=96	=96	=96
4C	0r	4g]	4e
4D	.	4f	4f
4E	.	2e	4g
4F	.	.	4a
4G	.	1d	2b-y
4A	.	.	.
4B-y	.	.	[2g
4c	.	.	.
=97	=97	=97	=97
2.A	2r	1c	4g]
.	.	.	4f
.	1c	.	1f
8GL	.	.	.
8FJ	.	.	.
1G	.	1r	.
.	2B-y	.	2e
=98	=98	=98	=98
1F	2.A	2r	2f
.	.	2c	2f
.	8GL	.	.
.	8FJ	.	.
2r	2A	4c	2.e
.	.	4d	.
[2C	2G	4e	.
.	.	4f	4d
=99	=99	=99	=99
4C]	1c	4g	1e
4D	.	4f	.
4E	.	4g	.
4F	.	4a	.
4G	2B-y	4b-y	2r
4E	.	4g	.
2F	2A	[2a	2f
=100	=100	=100	=100
1D	1F	4a]	4f
.	.	4g	4g
.	.	1f	4a
.	.	.	4b-y
1C	1G	.	2cc
.	.	2e	2cc
=101	=101	=101	=101
00Fl	00Fl	00fl	00al
==	==	==	==
*-	*-	*-	*-
!!!system-decoration: [*]
!!!RDF**kern: i = editorial accidental
!!!RDF**kern: l = terminal long
!!!ENC: Benjamin Ory
!!!END: 2021/1/9
!!!EED: Benjamin Ory
!!!EEV: 2021/05/02
!!!YEC: Copyright 2021 Benjamin Ory, All Rights Reserved
!!!ONB: Translated from MusicXML on 2021/05/02
